!!!OTL: DREI WUERFEL UND EIN KARTENSPIEL
!!!ARE: Europa, Mitteleuropa, Deutschland
!!!SCT: E1772
!!!YEM: Copyright 1995, estate of Helmut Schaffrath.
**kern
*ICvox
*Ivox
*M4/4
*k[b-]
*F:
{4f
=1
4f
4f
4a
4a
=2
4cc
4cc
4a}
{8a
8a
=3
4dd
4cc
4b-
4g
=4
4g
4f
2g}
=5
{4f
4f
4a
4a
=6
4cc
4cc
2cc
=7
4r}
{4a
4b-
4dd
=8
4cc
4b-
4.a
8g
=9
2.f}
==
!!!AGN: Scherz - Lied, Spiel
!!!ONB: ESAC (Essen Associative Code) Database: ERK3
!!!AMT: simple quadruple
!!!AIN: vox
!!!EED: Helmut Schaffrath
!!!EEV: 1.0
*-
